X: 1
T: Gigue de Terrebonne
C: attr. Alfred Montmarquette
O: Qu\'ebec
R: jig
S: Fiddle Hell Online 2021-05-31 (printed image from unknown source)
Z: 2021 John Chambers <jc:trillian.mit.edu>
M: 6/8
L: 1/8
K: D
Ac \
| d2(cd) BAFA | d2(cd) e2(Ac | d2)cd BAFA | GBAG FDDA |\
| d2(cd) BAF(A | d2)cd e2(Ac)| d2(cd) BAde | fdec d2 :|
|: de \
| f3(f gf)eg | fdfd Acde | fdfd gfed | cdeg fdde |\
| f3(f gf)eg | fdfd Acde | fdfa gfed | cABc d2 :|
%%text The source didn't have the initial pickup notes, but had them at the end for all repeats.
